X: 1089
T: Take It Easy
R:double jig
N:"collected by F.O'Neill"
B:O'Neill's 1089
Z:Transcribed by henrik.norbeck@mailbox.swipnet.se
M:6/8
L:1/8
K:G
D|G3 ABd|edB A2B|G3 ABd|ede TE2D|
G3 ABd|edB A2G|def gdB|AcB G2:|
f|gfe agf|gfe def|gfe agf|gab e2f|
gfe agf|gfe def|gab dBG|AcB G2:|
d|e3 dBG|BAG ABd|e3 dBG|A2B E2d|
e3 dBG|BAG ABd|efg dBG|AcB G2:|


